src/images/svg/symbols/gold-basket.svg

<svg width="32" height="32" viewBox="0 0 32 32" fill="none" xmlns="http://www.w3.org/2000/svg">
<path fill-rule="evenodd" clip-rule="evenodd" d="M17 8H15V16H17V8ZM15 6C13.8954 6 13 6.89543 13 8V16C13 17.1046 13.8954 18 15 18H17C18.1046 18 19 17.1046 19 16V8C19 6.89543 18.1046 6 17 6H15ZM11 11H6C5.44772 11 5 11.4477 5 12C5 12.5523 5.44772 13 6 13H11V11ZM21 13L26 13C26.5523 13 27 12.5523 27 12C27 11.4477 26.5523 11 26 11H21V13ZM11 15H6L9.52127 24.6835C9.80868 25.4739 10.5598 26 11.4009 26H20.5991C21.4402 26 22.1913 25.4739 22.4787 24.6835L26 15H21V16C21 18.2091 19.2091 20 17 20V23C17 23.5523 16.5523 24 16 24C15.4477 24 15 23.5523 15 23V20C12.7909 20 11 18.2091 11 16V15ZM21 19C20.4477 19 20 19.4477 20 20V22C20 22.5523 20.4477 23 21 23C21.5523 23 22 22.5523 22 22V20C22 19.4477 21.5523 19 21 19ZM10 20C10 19.4477 10.4477 19 11 19C11.5523 19 12 19.4477 12 20V22C12 22.5523 11.5523 23 11 23C10.4477 23 10 22.5523 10 22V20Z" fill="#D2D3DA"/>
<circle cx="25" cy="6" r="4" fill="#FFDA5B"/>
<path d="M27.5503 2.91833C27.3767 2.77446 27.1906 2.64498 26.9941 2.53174L21.5317 7.99409C21.645 8.19064 21.7745 8.37665 21.9183 8.55031L27.5503 2.91833Z" fill="#FDF1CA"/>
<path d="M22.9305 9.42375C22.6417 9.24877 22.3767 9.03826 22.1418 8.79829L27.7983 3.14175C28.0383 3.37671 28.2488 3.64165 28.4238 3.93051L22.9305 9.42375Z" fill="#FDF1CA"/>
<path d="M24.0991 9.89817C23.9741 9.8694 23.8514 9.83479 23.7312 9.79462L28.7946 4.73121C28.8348 4.85139 28.8694 4.97411 28.8982 5.09906L24.0991 9.89817Z" fill="#FDF1CA"/>
<g clip-path="url(#clip0_7436_32399)">
<circle cx="25" cy="6" r="3.25" fill="#FFC329"/>
<path d="M25 9.24992C26.7949 9.24992 28.25 7.79484 28.25 5.99992C28.25 5.44905 28.1129 4.93019 27.871 4.47559C25.7555 5.08806 24.0881 6.75548 23.4756 8.87098C23.9302 9.11286 24.4491 9.24992 25 9.24992Z" fill="#F8B712"/>
</g>
<path d="M27.4197 3.83028C26.8444 3.31403 26.0839 3 25.25 3C23.4551 3 22 4.45507 22 6.25C22 7.08386 22.314 7.84437 22.8303 8.41972C22.1672 7.82471 21.75 6.96107 21.75 6C21.75 4.20507 23.2051 2.75 25 2.75C25.9611 2.75 26.8247 3.16716 27.4197 3.83028Z" fill="#DB9E43"/>
<defs>
<clipPath id="clip0_7436_32399">
<rect x="21.75" y="2.75" width="6.5" height="6.5" rx="3.25" fill="white"/>
</clipPath>
</defs>
</svg>

<svg width="32" height="32" fill="none" xmlns="http://www.w3.org/2000/svg"><path fill-rule="evenodd" clip-rule="evenodd" d="M17 8h-2v8h2V8zm-2-2a2 2 0 00-2 2v8a2 2 0 002 2h2a2 2 0 002-2V8a2 2 0 00-2-2h-2zm-4 5H6a1 1 0 100 2h5v-2zm10 2h5a1 1 0 100-2h-5v2zm-10 2H6l3.521 9.683A2 2 0 0011.401 26h9.198a2 2 0 001.88-1.317L26 15h-5v1a4 4 0 01-4 4v3a1 1 0 11-2 0v-3a4 4 0 01-4-4v-1zm10 4a1 1 0 00-1 1v2a1 1 0 102 0v-2a1 1 0 00-1-1zm-11 1a1 1 0 112 0v2a1 1 0 11-2 0v-2z" fill="#D2D3DA"/><circle cx="25" cy="6" r="4" fill="#FFDA5B"/><path d="M27.55 2.918a4.009 4.009 0 00-.556-.386l-5.462 5.462c.113.197.242.383.386.556l5.632-5.632zM22.93 9.424a4.017 4.017 0 01-.788-.626l5.656-5.656c.24.235.45.5.626.789L22.93 9.424zM24.1 9.898a3.97 3.97 0 01-.369-.103l5.064-5.064c.04.12.074.243.103.368L24.1 9.9z" fill="#FDF1CA"/><g clip-path="url(#prefix__clip0_7436_32399)"><circle cx="25" cy="6" r="3.25" fill="#FFC329"/><path d="M25 9.25a3.25 3.25 0 002.871-4.774 6.458 6.458 0 00-4.395 4.395c.454.242.973.379 1.524.379z" fill="#F8B712"/></g><path d="M27.42 3.83a3.25 3.25 0 00-4.59 4.59 3.25 3.25 0 114.59-4.59z" fill="#DB9E43"/><defs><clipPath id="prefix__clip0_7436_32399"><rect x="21.75" y="2.75" width="6.5" height="6.5" rx="3.25" fill="#fff"/></clipPath></defs></svg>
